X: 410
T: A Trip To Galloway
R: waltz
M: 3/4
K: Dmajor
M:6/8
|:B/c/|dcB AFd|DFD AFD|dcB AFD|EFA B2 B/c/|
dcB AdF|DFD AFD|GBG FAF|EFA B2:|
|:A|d2 a afd|c2 e ecA|d2 a afd|AFA TB2 A|
dfa afd|cea ecA|dcB AFd|EFA B2:|

